X: 1
T:Archie Menzie's
R:Reel
C:John Lowe
M:4/4
L:1/8
Q:1/4=200
K:F
FE|:~F2CF AFEF|Acde fcA^F|G2DG BGDG|(3Bcd ef gdBG|
~F2CF AFCF|Acde fcAF|BdGB AcFA|GECE F2FE:|
fe|:ffcf afef|cfag fed^f|g2dg bg^fg|dgba gfed|
cfef afef|cfag fedc|BdGB AcFA|GECE F2fe:|

